X: 25
T:S.H. Reel
% Nottingham Music Database
S:Bryon Bonnett, via PR
M:4/4
L:1/4
K:G
Bc |"G"dd BB|GG D2|GG AG|"D7"FA e_e|"G"dd BB|G/2A/2G D2|\
"Am"A/2B/2c "D7"D/2E/2F|[1"G"G2 :|[2 "G" G2 G2|
"C"ee c/2d/2e|"G"dd B2|"D7"cc Ae|"G"d/2^c/2d B2|"C"ee c/2d/2e|
"G"dd B3/2_B/2|"A7"AB c^c|"D7"de =f^f|"G"gg d/2e/2d|B/2c/2B G3/2D/2|
GG AG|"D7"FG ^GA|"G"dd B/2c/2B|G/2A/2G D2|"Am"A/2B/2c "D7"D/2E/2F|"G"G2 ||


